_site/images/features-page/circle-recovery-blue.svg

<svg fill="none" height="42" viewBox="0 0 42 42" width="42" xmlns="http://www.w3.org/2000/svg"><circle cx="21" cy="21" fill="#3ad9cf" r="21"/><path clip-rule="evenodd" d="m28.94 17.67c.0295.0876.0496.1781.06.27v.06 10c0 1.6569-1.3431 3-3 3h-10c-1.6569 0-3-1.3431-3-3v-14c0-1.6569 1.3431-3 3-3h6.06c.1083.0209.2128.058.31.11h.1c.1028.0481.1973.1122.28.19l6 6c.0778.0827.1419.1772.19.28zm-7.56 2.41c.1228.0476.2349.119.33.21l2 2c.1893.1878.2958.4434.2958.71 0 .2667-.1065.5223-.2958.71-.1878.1893-.4434.2958-.71.2958s-.5222-.1065-.71-.2958l-.29-.3v2.59c0 .5523-.4477 1-1 1s-1-.4477-1-1v-2.59l-.29.3c-.3921.3921-1.0279.3921-1.42 0s-.3921-1.0279 0-1.42l2-2c.0951-.091.2073-.1624.33-.21.2435-.1.5165-.1.76 0zm1.62-5.67 2.59 2.59h-1.59c-.5523 0-1-.4477-1-1zm3 14.59c.5523 0 1-.4477 1-1v-9h-3c-1.6569 0-3-1.3431-3-3v-3h-5c-.5523 0-1 .4477-1 1v14c0 .5523.4477 1 1 1z" fill="#fff" fill-rule="evenodd"/></svg>

<svg width="42" height="42" viewBox="0 0 42 42" fill="none" xmlns="http://www.w3.org/2000/svg">
<circle cx="21" cy="21" r="21" fill="#3AD9CF"/>
<path fill-rule="evenodd" clip-rule="evenodd" d="M28.94 17.67C28.9695 17.7576 28.9896 17.8481 29 17.94V18V28C29 29.6569 27.6569 31 26 31H16C14.3431 31 13 29.6569 13 28V14C13 12.3431 14.3431 11 16 11H22.06C22.1683 11.0209 22.2728 11.058 22.37 11.11H22.47C22.5728 11.1581 22.6673 11.2222 22.75 11.3L28.75 17.3C28.8278 17.3827 28.8919 17.4772 28.94 17.58V17.67ZM21.38 20.08C21.5028 20.1276 21.6149 20.199 21.71 20.29L23.71 22.29C23.8993 22.4778 24.0058 22.7334 24.0058 23C24.0058 23.2667 23.8993 23.5223 23.71 23.71C23.5222 23.8993 23.2666 24.0058 23 24.0058C22.7334 24.0058 22.4778 23.8993 22.29 23.71L22 23.41V26C22 26.5523 21.5523 27 21 27C20.4477 27 20 26.5523 20 26V23.41L19.71 23.71C19.3179 24.1021 18.6821 24.1021 18.29 23.71C17.8979 23.3179 17.8979 22.6821 18.29 22.29L20.29 20.29C20.3851 20.199 20.4973 20.1276 20.62 20.08C20.8635 19.98 21.1365 19.98 21.38 20.08ZM23 14.41L25.59 17H24C23.4477 17 23 16.5523 23 16V14.41ZM26 29C26.5523 29 27 28.5523 27 28V19H24C22.3431 19 21 17.6569 21 16V13H16C15.4477 13 15 13.4477 15 14V28C15 28.5523 15.4477 29 16 29H26Z" fill="white"/>
</svg>
